src/data/icons/attention.svg

<?xml version="1.0" encoding="UTF-8"?>
<svg width="19px" height="18px" viewBox="0 0 19 18" version="1.1" xmlns="http://www.w3.org/2000/svg" xmlns:xlink="http://www.w3.org/1999/xlink">
    <title>Group 11</title>
    <g id="👋-01-Signup" stroke="none" stroke-width="1" fill="none" fill-rule="evenodd">
        <g id="wallfair-sign-up-04a-error" transform="translate(-51.000000, -410.000000)" fill="#FF5858" fill-rule="nonzero">
            <g id="Group-10" transform="translate(30.000000, 399.000000)">
                <g id="Group-11" transform="translate(21.000000, 11.000000)">
                    <path d="M9.49975996,12.6489768 C8.96857903,12.6489768 8.52332442,13.1104115 8.52332442,13.660895 C8.52332442,14.2113785 8.96857903,14.6728131 9.49975996,14.6728131 C10.0114122,14.6728131 10.4761955,14.2113785 10.452761,13.685181 C10.4761955,13.1063638 10.0348466,12.6489768 9.49975996,12.6489768 Z" id="Path"></path>
                    <path d="M18.5376472,16.2352148 C19.1508488,15.1382955 19.1547545,13.8308972 18.5454587,12.7380256 L12.4290666,1.76073758 C11.8236765,0.655722959 10.7300687,0 9.5036657,0 C8.27726267,0 7.18365487,0.659770632 6.57826484,1.7566899 L0.454061181,12.746121 C-0.155234592,13.8511356 -0.15132885,15.1666292 0.465778407,16.2635485 C1.07507418,17.3483247 2.16477623,18 3.38336778,18 L15.6005292,18 C16.8230265,18 17.92054,17.3402294 18.5376472,16.2352148 Z M17.2096949,15.4418709 C16.8698954,16.0490218 16.2684111,16.4092647 15.5966234,16.4092647 L3.37946204,16.4092647 C2.71548587,16.4092647 2.11790733,16.0571172 1.78591925,15.4621093 C1.45002542,14.8590061 1.44611968,14.1385204 1.78201351,13.5313695 L7.90621717,2.54598606 C8.23820525,1.94288284 8.83187805,1.58668765 9.5036657,1.58668765 C10.1715476,1.58668765 10.7691261,1.94693051 11.1011142,2.55003373 L17.2214121,13.5354171 C17.5494945,14.1263773 17.5455887,14.8387677 17.2096949,15.4418709 Z" id="Shape"></path>
                    <path d="M9.25760394,5.54531145 C8.79282063,5.68293231 8.50379571,6.12008095 8.50379571,6.65032606 C8.52723017,6.9700922 8.54675888,7.293906 8.57019333,7.61367214 C8.63659094,8.83202159 8.70298856,10.026085 8.76938618,11.2444345 C8.79282063,11.6572971 9.10137426,11.9568248 9.49975996,11.9568248 C9.89814565,11.9568248 10.210605,11.6370587 10.2301337,11.2201484 C10.2301337,10.9691927 10.2301337,10.7384754 10.2535682,10.483472 C10.2965314,9.70227119 10.3434003,8.92107038 10.3863634,8.13986957 C10.4097979,7.6339105 10.452761,7.12795143 10.4761955,6.62199235 C10.4761955,6.43984709 10.452761,6.27794018 10.3863634,6.11603328 C10.1871706,5.66269395 9.72238726,5.43197661 9.25760394,5.54531145 Z" id="Path"></path>
                </g>
            </g>
        </g>
    </g>
</svg>

<svg width="19" height="18" xmlns="http://www.w3.org/2000/svg"><g fill="#FF5858" fill-rule="nonzero"><path d="M9.5 12.649c-.531 0-.977.461-.977 1.012 0 .55.446 1.012.977 1.012.511 0 .976-.462.953-.988.023-.579-.418-1.036-.953-1.036z"/><path d="M18.538 16.235a3.564 3.564 0 00.007-3.497L12.43 1.761C11.824.656 10.73 0 9.504 0c-1.227 0-2.32.66-2.926 1.757L.454 12.747a3.593 3.593 0 00.012 3.517C1.076 17.348 2.165 18 3.383 18h12.218c1.222 0 2.32-.66 2.937-1.765zm-1.328-.793c-.34.607-.942.967-1.613.967H3.379a1.81 1.81 0 01-1.593-.947 1.976 1.976 0 01-.004-1.93L7.906 2.545c.332-.603.926-.96 1.598-.96.668 0 1.265.36 1.597.964l6.12 10.985a1.95 1.95 0 01-.011 1.907z"/><path d="M9.258 5.545c-.465.138-.754.575-.754 1.105.023.32.043.644.066.964l.2 3.63c.023.413.331.713.73.713.398 0 .71-.32.73-.737 0-.25 0-.482.024-.737.043-.78.09-1.562.132-2.343.024-.506.067-1.012.09-1.518a1.29 1.29 0 00-.09-.506.97.97 0 00-1.128-.57z"/></g></svg>
